flaticon/constructions/tools-2.svg

<svg xmlns="http://www.w3.org/2000/svg" width="32" height="32" viewBox="0 0 24 24">
    <path d="M 22.632812 18.121094 C 22.132812 17.773438 21.558594 17.582031 20.976562 17.554688 C 18.789062 16.117188 17.351562 15.042969 16.515625 14.203125 L 13.941406 11.632812 L 15.503906 9.882812 C 15.800781 10.050781 16.117188 10.160156 16.433594 10.207031 C 16.675781 10.246094 16.835938 10.246094 16.996094 10.246094 C 17.316406 10.246094 17.394531 10.246094 17.714844 10.527344 C 17.554688 10.648438 17.476562 10.847656 17.476562 11.046875 C 17.476562 11.246094 17.554688 11.484375 17.714844 11.644531 L 19.113281 13.046875 C 19.3125 13.285156 19.632812 13.40625 19.953125 13.40625 C 20.273438 13.40625 20.59375 13.285156 20.792969 13.003906 L 23.632812 10.167969 C 23.871094 9.96875 23.992188 9.648438 23.992188 9.328125 C 23.992188 9.007812 23.871094 8.726562 23.632812 8.488281 L 22.230469 7.089844 C 22.074219 6.929688 21.871094 6.847656 21.671875 6.847656 C 21.472656 6.847656 21.273438 6.96875 21.113281 7.089844 C 20.792969 6.808594 20.792969 6.730469 20.792969 6.410156 C 20.792969 6.25 20.792969 6.050781 20.714844 5.808594 C 20.632812 5.25 20.351562 4.691406 19.914062 4.25 L 18.472656 2.808594 C 17.632812 1.972656 17.234375 1.570312 16.15625 1.089844 C 13.835938 0.0117188 11.476562 0.210938 8.039062 1.769531 C 7.839844 1.851562 7.757812 2.011719 7.800781 2.210938 C 7.839844 2.410156 8 2.53125 8.199219 2.53125 L 8.71875 2.53125 C 10.476562 2.53125 11.398438 2.53125 12.996094 4.128906 C 13.695312 4.832031 13.71875 5.902344 13.089844 6.695312 C 13.003906 6.707031 12.941406 6.746094 12.875 6.808594 L 11.101562 8.789062 L 9.757812 7.449219 C 8.28125 5.972656 7.246094 4.578125 6.445312 3.023438 C 6.40625 2.234375 6.089844 1.5 5.519531 0.929688 C 4.839844 0.25 3.882812 -0.0664062 2.921875 0.0117188 C 2.800781 0.0507812 2.683594 0.132812 2.640625 0.210938 C 2.5625 0.332031 2.5625 0.492188 2.640625 0.613281 L 3.761719 2.609375 C 3.523438 3.128906 2.960938 3.449219 2.402344 3.410156 L 1.242188 1.492188 C 1.203125 1.371094 1.042969 1.292969 0.921875 1.292969 C 0.804688 1.25 0.683594 1.332031 0.601562 1.453125 C -0.355469 2.890625 0.00390625 4.808594 1.441406 5.808594 C 1.9375 6.164062 2.496094 6.359375 3.0625 6.402344 C 3.070312 6.402344 3.074219 6.40625 3.082031 6.410156 C 4.640625 7.207031 6.039062 8.246094 7.519531 9.726562 L 8.980469 11.15625 L 0.484375 20.640625 C 0.164062 20.960938 0.00390625 21.402344 0.00390625 21.839844 C 0.00390625 22.28125 0.164062 22.679688 0.484375 23 L 1.042969 23.558594 C 1.363281 23.839844 1.761719 24 2.164062 24 C 2.5625 24 3 23.839844 3.320312 23.519531 L 11.8125 14.019531 L 14.277344 16.484375 C 15.113281 17.324219 16.191406 18.800781 17.628906 20.957031 C 17.683594 21.726562 17.996094 22.445312 18.554688 23 C 19.152344 23.601562 19.953125 23.921875 20.792969 23.921875 C 20.914062 23.921875 21.03125 23.921875 21.113281 23.921875 C 21.234375 23.921875 21.351562 23.839844 21.433594 23.71875 C 21.511719 23.601562 21.511719 23.441406 21.433594 23.320312 L 20.273438 21.363281 C 20.554688 20.839844 21.074219 20.523438 21.671875 20.5625 L 22.792969 22.480469 C 22.832031 22.601562 22.992188 22.679688 23.113281 22.679688 C 23.273438 22.640625 23.390625 22.601562 23.472656 22.480469 C 24.429688 21.042969 24.03125 19.121094 22.632812 18.121094 Z M 13.515625 3.492188 C 12.238281 2.25 11.277344 1.851562 10.199219 1.730469 C 12.476562 1.011719 14.15625 1.050781 15.835938 1.8125 C 16.796875 2.210938 17.113281 2.53125 17.953125 3.371094 L 19.394531 4.808594 C 19.714844 5.128906 19.914062 5.527344 19.953125 5.929688 C 19.992188 6.128906 19.992188 6.289062 19.992188 6.410156 C 19.992188 6.847656 20.035156 7.167969 20.511719 7.648438 C 20.671875 7.808594 20.914062 7.886719 21.113281 7.886719 C 21.351562 7.886719 21.550781 7.808594 21.671875 7.648438 L 23.070312 9.046875 C 23.152344 9.128906 23.191406 9.207031 23.191406 9.328125 C 23.191406 9.449219 23.152344 9.527344 23.070312 9.605469 L 20.234375 12.445312 C 20.074219 12.605469 19.832031 12.605469 19.671875 12.445312 L 18.273438 11.046875 C 18.433594 10.925781 18.515625 10.726562 18.472656 10.488281 C 18.472656 10.285156 18.394531 10.046875 18.234375 9.886719 C 17.753906 9.40625 17.433594 9.367188 16.996094 9.367188 C 16.875 9.367188 16.714844 9.367188 16.515625 9.328125 C 16.074219 9.289062 15.714844 9.085938 15.394531 8.769531 L 13.675781 7.046875 C 14.554688 5.96875 14.476562 4.449219 13.515625 3.492188 Z M 0.964844 2.53125 L 1.800781 3.96875 C 1.882812 4.089844 2.003906 4.171875 2.121094 4.171875 L 2.320312 4.171875 C 3.242188 4.210938 4.082031 3.730469 4.480469 2.929688 L 4.5625 2.730469 C 4.640625 2.609375 4.640625 2.492188 4.5625 2.371094 L 3.679688 0.851562 C 4.160156 0.929688 4.601562 1.171875 4.960938 1.53125 C 5.375 1.976562 5.636719 2.542969 5.652344 3.148438 C 5.644531 3.179688 5.640625 3.214844 5.640625 3.25 C 5.640625 3.4375 5.617188 3.617188 5.578125 3.789062 C 5.425781 4.371094 5.0625 4.875 4.5625 5.210938 C 3.761719 5.730469 2.683594 5.730469 1.882812 5.167969 C 1.042969 4.570312 0.683594 3.492188 0.964844 2.53125 Z M 8.078125 9.167969 C 6.878906 7.929688 5.679688 6.96875 4.402344 6.207031 C 4.601562 6.128906 4.839844 6.007812 5.039062 5.890625 C 5.640625 5.488281 6.039062 4.96875 6.28125 4.328125 C 7.039062 5.609375 8 6.808594 9.199219 8.007812 L 10.570312 9.382812 L 9.496094 10.582031 Z M 2.761719 22.921875 C 2.441406 23.242188 1.921875 23.28125 1.601562 22.960938 L 1.042969 22.441406 C 0.882812 22.28125 0.804688 22.082031 0.804688 21.882812 C 0.804688 21.640625 0.882812 21.441406 1.082031 21.242188 L 1.308594 20.988281 L 1.882812 21.5625 C 1.960938 21.640625 2.042969 21.679688 2.164062 21.679688 C 2.28125 21.679688 2.363281 21.640625 2.441406 21.5625 C 2.601562 21.402344 2.601562 21.160156 2.441406 21 L 1.835938 20.398438 L 2.367188 19.804688 L 3 20.441406 C 3.082031 20.523438 3.160156 20.5625 3.28125 20.5625 C 3.402344 20.5625 3.480469 20.523438 3.5625 20.441406 C 3.722656 20.28125 3.722656 20.042969 3.5625 19.882812 L 2.894531 19.214844 L 13.179688 7.710938 L 14.855469 9.386719 L 13.207031 11.234375 C 13.160156 11.253906 13.117188 11.285156 13.078125 11.328125 L 11.476562 13.125 C 11.433594 13.171875 11.398438 13.222656 11.378906 13.277344 Z M 12.359375 13.40625 L 13.453125 12.179688 L 16.035156 14.765625 C 16.753906 15.523438 17.996094 16.484375 19.792969 17.683594 C 19.554688 17.761719 19.3125 17.882812 19.074219 18.042969 C 18.578125 18.351562 18.226562 18.785156 17.980469 19.257812 C 17.976562 19.265625 17.976562 19.273438 17.972656 19.28125 C 17.957031 19.308594 17.941406 19.335938 17.929688 19.367188 C 17.910156 19.40625 17.890625 19.449219 17.871094 19.492188 C 17.859375 19.519531 17.847656 19.546875 17.835938 19.574219 C 17.835938 19.578125 17.832031 19.582031 17.832031 19.589844 C 17.820312 19.621094 17.804688 19.652344 17.792969 19.683594 C 17.566406 19.347656 17.347656 19.035156 17.140625 18.738281 L 17.675781 18.203125 C 17.835938 18.042969 17.835938 17.804688 17.675781 17.644531 C 17.515625 17.484375 17.273438 17.484375 17.113281 17.644531 L 16.667969 18.089844 C 16.503906 17.863281 16.34375 17.652344 16.1875 17.449219 L 16.554688 17.082031 C 16.714844 16.921875 16.714844 16.683594 16.554688 16.523438 C 16.394531 16.363281 16.15625 16.363281 15.996094 16.523438 L 15.691406 16.828125 C 15.394531 16.476562 15.125 16.171875 14.875 15.925781 Z M 23.070312 21.402344 L 22.230469 19.960938 C 22.152344 19.84375 22.03125 19.761719 21.914062 19.761719 L 21.710938 19.761719 C 20.792969 19.683594 19.953125 20.203125 19.554688 21 L 19.472656 21.203125 C 19.394531 21.320312 19.394531 21.441406 19.472656 21.5625 L 20.351562 23.082031 C 19.875 23 19.433594 22.761719 19.074219 22.402344 C 18.667969 21.960938 18.40625 21.410156 18.382812 20.816406 C 18.390625 20.789062 18.394531 20.757812 18.394531 20.722656 C 18.394531 20.214844 18.554688 19.742188 18.835938 19.339844 C 19.007812 19.101562 19.222656 18.890625 19.472656 18.722656 C 19.875 18.441406 20.3125 18.324219 20.792969 18.324219 C 21.273438 18.324219 21.753906 18.484375 22.152344 18.761719 C 22.992188 19.363281 23.351562 20.441406 23.070312 21.402344 Z M 23.070312 21.402344"/>
</svg>

<svg xmlns="http://www.w3.org/2000/svg" width="32" height="32" viewBox="0 0 24 24">
    <path d="M22.633 18.121a3.16 3.16 0 0 0-1.656-.566c-2.188-1.438-3.625-2.512-4.461-3.352l-2.575-2.57 1.563-1.75c.297.168.613.277.93.324.242.04.402.04.562.04.32 0 .399 0 .719.28a.645.645 0 0 0-.238.52c0 .2.078.437.238.598l1.398 1.402c.2.238.52.36.84.36.32 0 .64-.122.84-.403l2.84-2.836c.238-.2.36-.52.36-.84 0-.32-.122-.601-.36-.84L22.23 7.09a.783.783 0 0 0-.558-.242c-.2 0-.399.12-.559.242-.32-.281-.32-.36-.32-.68 0-.16 0-.36-.078-.601a2.836 2.836 0 0 0-.8-1.559l-1.442-1.441c-.84-.836-1.239-1.239-2.317-1.72-2.32-1.077-4.68-.878-8.117.68-.2.083-.281.243-.238.442.039.2.199.32.398.32h.52c1.758 0 2.68 0 4.277 1.598.7.703.723 1.773.094 2.566a.374.374 0 0 0-.215.114l-1.773 1.98-1.344-1.34C8.28 5.973 7.246 4.58 6.445 3.023A3.15 3.15 0 0 0 5.52.93C4.84.25 3.883-.066 2.922.012 2.8.05 2.684.132 2.64.21a.375.375 0 0 0 0 .402L3.76 2.61c-.238.52-.8.84-1.359.801l-1.16-1.918c-.039-.12-.199-.199-.32-.199-.117-.043-.238.039-.32.16a3.15 3.15 0 0 0 .84 4.356c.496.355 1.054.55 1.62.593.008 0 .012.004.02.008 1.559.797 2.957 1.836 4.438 3.317l1.46 1.43L.484 20.64c-.32.32-.48.761-.48 1.199 0 .441.16.84.48 1.16l.559.559c.32.28.719.441 1.121.441.398 0 .836-.16 1.156-.48l8.492-9.5 2.465 2.464c.836.84 1.914 2.317 3.352 4.473.055.77.367 1.488.926 2.043a3.134 3.134 0 0 0 2.238.922h.32c.121 0 .239-.082.32-.203a.368.368 0 0 0 0-.399l-1.16-1.957c.282-.523.801-.84 1.399-.8l1.121 1.917c.039.122.2.2.32.2.16-.04.278-.078.36-.2.957-1.437.558-3.359-.84-4.359zM13.516 3.492c-1.278-1.242-2.239-1.64-3.317-1.762 2.278-.718 3.957-.68 5.637.083.96.398 1.277.718 2.117 1.558l1.442 1.438c.32.32.52.718.558 1.12.04.2.04.36.04.481 0 .438.042.758.519 1.238.16.16.402.239.601.239.239 0 .438-.078.559-.239l1.398 1.399c.082.082.121.16.121.281 0 .121-.039.2-.12.277l-2.837 2.84a.39.39 0 0 1-.562 0l-1.399-1.398c.16-.121.243-.32.2-.559a.878.878 0 0 0-.239-.601c-.48-.48-.8-.52-1.238-.52-.121 0-.281 0-.48-.039-.442-.039-.801-.242-1.121-.558l-1.72-1.723c.88-1.078.802-2.598-.16-3.555zM.965 2.532L1.8 3.968c.082.12.203.203.32.203h.2c.921.039 1.761-.442 2.16-1.242l.082-.2a.305.305 0 0 0 0-.359L3.68.851c.48.079.922.32 1.28.68.415.446.677 1.012.692 1.617a.426.426 0 0 0-.011.102c0 .188-.024.367-.063.54a2.47 2.47 0 0 1-1.016 1.42c-.8.52-1.878.52-2.68-.042a2.426 2.426 0 0 1-.917-2.637zm7.113 6.636c-1.2-1.238-2.398-2.2-3.676-2.961.2-.078.438-.2.637-.316.602-.403 1-.922 1.242-1.563C7.04 5.61 8 6.808 9.2 8.008l1.371 1.375-1.074 1.199zM2.762 22.922c-.32.32-.84.36-1.16.039l-.559-.52a.786.786 0 0 1-.238-.558c0-.242.078-.442.277-.64l.227-.255.574.575c.078.078.16.117.281.117.117 0 .2-.04.277-.117a.39.39 0 0 0 0-.563l-.605-.602.531-.593.633.636c.082.082.16.122.281.122.121 0 .2-.04.281-.122a.385.385 0 0 0 0-.558l-.667-.668L13.18 7.71l1.675 1.676-1.648 1.847a.364.364 0 0 0-.129.094l-1.601 1.797a.46.46 0 0 0-.098.152zm9.597-9.516l1.094-1.226 2.582 2.586c.719.757 1.961 1.718 3.758 2.918-.238.078-.48.199-.719.359a3.068 3.068 0 0 0-1.094 1.215c-.003.008-.003.015-.007.023-.016.028-.032.055-.043.086a3.828 3.828 0 0 0-.094.207c0 .004-.004.008-.004.016-.012.031-.027.062-.039.094-.227-.336-.445-.649-.652-.946l.535-.535a.385.385 0 0 0 0-.558.39.39 0 0 0-.563 0l-.445.445a27.349 27.349 0 0 0-.48-.64l.367-.368a.385.385 0 0 0 0-.559.385.385 0 0 0-.559 0l-.305.305a13.654 13.654 0 0 0-.816-.902zm10.711 7.996l-.84-1.441c-.078-.117-.199-.2-.316-.2h-.203c-.918-.077-1.758.442-2.156 1.239l-.082.203a.305.305 0 0 0 0 .36l.879 1.519a2.383 2.383 0 0 1-1.278-.68c-.406-.441-.668-.992-.691-1.586a.342.342 0 0 0 .012-.093 2.397 2.397 0 0 1 1.078-2c.402-.282.84-.399 1.32-.399.48 0 .96.16 1.36.438.84.601 1.199 1.68.917 2.64zm0 0"/>
</svg>
